X:76
T:Charlie Harris'
R:Fling
S:Andy Dickson, Belfast (fiddle)
D:Private tape
N:As played
Z:Bernie Stocks
M:4/4
K:D
(3.A.B.c || dBAB de{f}fe | dBAB e2fe | dBAB de{a}fe | dcBc +E2A2+ (3ABc |
d2(3ABc de{a}fe | dBAB eafe | dBAB de{a}fe | dcBc +E4A4+ ||
~f2-fa f2~f2 | edBd +e2c2++e2c2+ | f2fa f2~f2 | dcBc +E2A2++E2A2+ |
f2fa f2~f2 | edBd efge | defa afec | dcBc Ac(3.A.c.c || d4
<end>
<start>
